X:1
T:Jills Endeavor  "CYMRU"
M:C|
L:1/8
Q:80
C:Ned Smith
S: - Relaxed Calypso Beat -
K:HP
| {g}c3/2e/2-e/2A/2{g}c/2e/2 | \
{g}f3/2d/2-dB | \
{g}c3/2e/2-e/2A/2{g}c/2e/2 |
{g}d3/2B/2-Bd | | \
{g}c3/2e/2-e/2A/2{g}c/2e/2 | \
{g}f3/2a/2-af |
{g}d3/2c/2-cB | \
{g}A{d}cde|]  | \
{g}f3/2a/2-af |
{g}e3/2c/2-ce | \
{g}d3/2c/2-cB | \
{g}c3/2e/2-ec| |
{g}f3/2a/2-af | \
{g}e3/2c/2-ce | \
{g}d3/2c/2-cB |
{g}Afed|]  | \
{g}c3/2e/2-e/2A/2{g}c/2e/2 | \
{g}f3/2d/2-dB |
{g}c3/2e/2-e/2A/2{g}c/2e/2 | \
{g}d3/2B/2-Bd | | \
{g}c3/2e/2-e/2A/2{g}c/2e/2 |
{g}f3/2a/2-af | \
{g}d3/2c/2-cB | \
{g}A{d}cde|] |
{g}f/2d/2f/2a/2-af | \
{g}e/2c/2e/2c/2-ce | \
{g}d3/2c/2-cB |
{g}c/2B/2c/2d/2{g}eA | | \
{g}f/2d/2f/2a/2-af | \
{g}e/2c/2e/2c/2-ce |
{g}d3/2c/2-cB | \
{g}A4|]
